X:143
T:Royal Cradle, The
M:C |
L:1/8
B:Thompson's Compleat Collection of 200 Favourite Country Dances, vol. 2 (London, 1765)
Z:Transcribed and edited by Flynn Titford-Mock, 2007
Z:abc's:AK/Fiddler's Companion
K:F
a2 fd g2 e^c | d2 BG AF D2 | f2 dB c2 Ac | B2 GE F4 | a2 fd g2 e^c | d2 BG AF D2 |
B(G/A/B)G c(A/B/c)A | Bgce f4 :: a(f/g/a)f (g/a/b) (g/a/b) | g(e/f/g)e (f/g/a) (f/g/a) | f(d/e/f)d (e/f/g) (e/f/g) |
(f/g/a) (g/a/b) {f}e3d | d(B/c/d)B c(A/B/c)A | g(e/f/g)e {d}^c4 | a(f/g/a)f g(e/f/g)e | fdA^c d4 :|

